incomeartour/img/icons/like.svg

<svg width="18" height="18" viewBox="0 0 18 18" fill="none" xmlns="http://www.w3.org/2000/svg">
<path opacity="0.9" fill-rule="evenodd" clip-rule="evenodd" d="M16.086 7.74596C16.7302 7.74596 17.2488 8.27468 17.2488 8.92748C17.2488 9.59335 16.7232 10.1144 16.086 10.1144H15.5673C16.2061 10.1144 16.7247 10.6485 16.7247 11.3013C16.7247 11.9541 16.2027 12.4882 15.5673 12.4882H14.9232C15.5619 12.4882 16.0805 13.0169 16.0805 13.6751C16.0805 14.3126 15.58 14.8566 14.9232 14.8566H14.279C14.9177 14.8566 15.4418 15.3907 15.4418 16.0435C15.4418 16.6889 14.9311 17.2304 14.279 17.2304H10.4684C8.99527 17.2304 7.95686 16.9377 6.8435 16.6237C6.42471 16.5057 5.99531 16.3846 5.52819 16.275C5.41504 16.2448 5.33643 16.1434 5.33643 16.0275V7.64343C5.33643 7.43953 5.69819 7.21448 6.22059 6.88951C7.21708 6.26963 8.79808 5.28613 9.5676 3.39217L10.2664 1.69273C10.4653 1.19607 10.9507 0.845703 11.5111 0.845703C12.259 0.845703 12.865 1.46074 12.865 2.22686V3.69428C12.865 4.96215 12.461 6.19761 11.7076 7.20645L11.3091 7.74596H16.086ZM2.74279 6.95597H4.03956C4.18279 6.95597 4.29891 7.07069 4.29891 7.21227V16.4541C4.29891 16.5957 4.18279 16.7104 4.03956 16.7104H2.74279C1.59688 16.7104 0.667969 15.7924 0.667969 14.66V9.00638C0.667969 7.87395 1.59688 6.95597 2.74279 6.95597Z" fill="black"/>
</svg>

<svg width="18" height="18" fill="none" xmlns="http://www.w3.org/2000/svg"><path opacity=".9" fill-rule="evenodd" clip-rule="evenodd" d="M16.086 7.746a1.17 1.17 0 011.163 1.181c0 .666-.526 1.187-1.163 1.187h-.519c.64 0 1.158.534 1.158 1.187s-.522 1.187-1.158 1.187h-.644c.639 0 1.158.529 1.158 1.187 0 .638-.501 1.182-1.158 1.182h-.644c.639 0 1.163.534 1.163 1.187 0 .645-.51 1.186-1.163 1.186h-3.81c-1.474 0-2.512-.292-3.625-.606-.42-.118-.849-.24-1.316-.349a.257.257 0 01-.192-.247V7.643c0-.203.362-.429.885-.753.996-.62 2.577-1.604 3.347-3.498l.698-1.7a1.346 1.346 0 011.245-.846c.748 0 1.354.615 1.354 1.38v1.468a5.871 5.871 0 01-1.157 3.512l-.399.54h4.777zm-13.343-.79H4.04c.143 0 .259.115.259.256v9.242a.258.258 0 01-.26.256H2.744c-1.146 0-2.075-.918-2.075-2.05V9.006c0-1.132.929-2.05 2.075-2.05z" fill="#000"/></svg>
